X:481
T:Reel 481
M:4/4
K:Gmaj
L:1/8
G2Bd BGdG|G2Bd cBAF|G2BG DGBd||ccAB cdef:||2ecAB cdef|g2bg dgbg|ggag fdef|g2bg dgbg|cedc AGAd|g2bg dgbg|ggbg fgaf|bgaf gedB|cBAB cdeg|
